!!!!SEGMENT: pl-kk--kk-i-636--001-012_anonim--in-corona-domini-responsorium-9num.krn
!!!cenid: 18xx:4534
!!!COM: Anonim
!!!COM-rismID: pe30004985
!!!CDT:
!!!CNT:
!!!OPR: In Corona Domini
!!!OTL: Responsorium 9num
!!!OMV: 012
!!!PDT:
!!!AGN: Sacred
!!!YEC: Copyright 2022 Narodowy Instytut Fryderyka Chopina (https://polishscores.org)
!!!YEM: License CC-BY-4.0 (https://creativecommons.org/licenses/by/4.0)
!!!SMS-siglum: PL-Kk
!!!SMS-shelfmark: Kk.I.636
!!!SMS-variant:
!!!SMS-altvar:
!!!SMS-shelfwork: 001-012 M
!!!NIFC-rismSourceID: 1001216440
!!!NIFC-rismChildID: 1001217485
!!!NIFC-islandoraID: pl-kk:40786
!!!URL-pdf-islandora: https://repozytorium.nifc.pl/islandora/object/pl-kk%3A40786/datastream/PDF/view
!!!URL-scan: https://polish.musicsources.pl/pl/lokalizacje/galeria/rekopisy/7271/1 @EN{Scan on Polish Music Sources Website} @PL{Skany w portalu Dziedzictwo Muzyki Polskiej w otwartym dostępie}
!!!IIIF:
!!!ONB-nifc: UWAGA: Lamentacje i Responsoria In Corona Domini na skanach: S – 1-7, A – 24-30, T – 45-52, B – 70-78. Każda Lamentacja i Responsorium to oddzielne pliki.
!!!AIN: 1 alto 1 bass 1 soprn 1 tenor
!!!key: B-
**kern	**text	**kern	**text	**kern	**text	**kern	**text
*part4	*part4	*part3	*part3	*part2	*part2	*part1	*part1
*staff4	*staff4	*staff3	*staff3	*staff2	*staff2	*staff1	*staff1
*ICvox	*	*ICvox	*	*ICvox	*	*ICvox	*
*Ibass	*	*Itenor	*	*Ialto	*	*Isoprn	*
*I"Basso.	*	*I"Tenore.	*	*I"Alto.	*	*I"Soprano.	*
*I'B	*	*I'T	*	*I'A	*	*I'S	*
*clefF4	*	*clefC4	*	*clefC3	*	*clefC1	*
*k[b-e-]	*	*k[b-e-]	*	*k[b-e-]	*	*k[b-e-]	*
*B-:	*	*B-:	*	*B-:	*	*B-:	*
*M4/4	*	*M4/4	*	*M4/4	*	*M4/4	*
*met(c)	*	*met(c)	*	*met(c)	*	*met(c)	*
*all\right	*	*all\right	*	*all\right	*	*all\right	*
=1	=1	=1	=1	=1	=1	=1	=1
*2\right	*	*2\right	*	*2\right	*	*2\right	*
!!LO:TX:t=P:problem:all\right
4.B-\	Se-	4.d\	Se-	4.f\	Se-	4.b-\	Se-
8B-\	-ni-	8d\	-ni-	8f\	-ni-	8b-\	-ni-
4B-\	-o-	4d\	-o-	4f\	-o-	4b-\	-o-
4E-\	-res	4e-\	-res	4g\	-res	4b-\	-res
!LO:LB:g=original	!	!	!	!LO:LB:g=original	!	!LO:LB:g=original	!
=2	=2	=2	=2	=2	=2	=2	=2
4.B-\	po-	4.d\	po-	4.f\	po-	4.b-\	po-
8B-\	-pu-	8d\	-pu-	8f\	-pu-	8b-\	-pu-
4A\	-li	4c\	-li	4f\	-li	4cc\	-li
4F\	con-	4f\	con-	[4a\	con-	4dd\	con-
!	!	!LO:LB:g=original	!	!	!	!	!
=3	=3	=3	=3	=3	=3	=3	=3
4.G\	-si-	4d\	-si-	4a\]	.	4.b-\	-si-
.	.	4e-\	-li-	4.g\	-si-	.	.
8F\	-li-	.	.	.	.	8b-\	-li-
4E-\	-um	4c\	-um	.	.	4cc\	-um
.	.	.	.	8e-\	-li-	.	.
4D\	fe-	4d\	fe-	(4f\	-um	4b-\	fe-
=4	=4	=4	=4	=4	=4	=4	=4
1C	-ce-	1e-	-ce-	4g\)	.	4b-\	.
.	.	.	.	4c\	fe-	8a\L	.
.	.	.	.	.	.	8g\J	.
.	.	.	.	2e-\	-ce-	2a\	-ce-
=5	=5	=5	=5	=5	=5	=5	=5
4BB-/	-runt	4d\	-runt,	4f\	-runt,	4b-\	-runt,
4B-\	ut	4d\	ut	4f\	ut	4b-\	ut
2A-X\	Je-	2d\	Je-	2f\	Je-	2b-\	Je-
!LO:LB:g=original	!	!	!	!LO:LB:g=original	!	!LO:LB:g=original	!
=6	=6	=6	=6	=6	=6	=6	=6
4G\	-sum	2e-\	-sum	2g\	-sum	4b-\	-sum
2G\	do-	.	.	.	.	2b-\	do-
.	.	2e-\	do-	4e-\	do-	.	.
8F\L	.	.	.	4c\	.	4cc\	.
8E-\J	.	.	.	.	.	.	.
=7	=7	=7	=7	=7	=7	=7	=7
4F\	-lo	4c\	-lo	4c\	-lo	4a\	.
4D\	te-	2B-\	te-	4f\	te-	4.dd\	-lo
2E-\	-ne-	.	.	2g\	-ne-	.	.
.	.	.	.	.	.	8cc\	te-
.	.	8A/L	.	.	.	[4cc\	-ne-
.	.	8G/J	.	.	.	.	.
!	!	!LO:LB:g=original	!	!	!	!	!
=8	=8	=8	=8	=8	=8	=8	=8
2D/	-rent	4A\	-ne-	4f\	-rent	4cc\]	.
.	.	4B-\	-rent	2f\	et	4b-\	-rent
4C/	et	4e-\	et	.	.	8a\	et
.	.	.	.	.	.	8f\	oc-
4BB-/	oc-	4d\	oc-	4f\	oc-	[4b-\	-ci-
=9	=9	=9	=9	=9	=9	=9	=9
4.F\	-ci-	4.c\	-ci-	4.f\	-ci-	4b-\]	.
.	.	.	.	.	.	4a\	-de-
8F\	-de-	8c\	-de-	8f\	-de-	.	.
4BB-/	-rent,	4d\	-rent,	4f\	-rent,	4b-\	-rent,
4B-\	cum	4d\	cum	4r	.	4r	.
!LO:LB:g=original	!	!	!	!LO:LB:g=original	!	!LO:PB:g=original	!
=10	=10	=10	=10	=10	=10	=10	=10
8.A\	gla-	8.c\	gla-	4r	.	4r	.
16G\	-di-	16B-\	-di-	.	.	.	.
4F\	-is	4c\	-is	4f\	cum	8r	.
.	.	.	.	.	.	8a\	cum
4r	.	4r	.	8.e-\	gla-	8.g/	gla-
.	.	.	.	16d\	-di-	16f/	-di-
4c\	et	4e-\	et	4c\	-is	4g/	-is
=11	=11	=11	=11	=11	=11	=11	=11
8.B-\	fu-	8.d\	fu-	4r	.	4r	.
16A\	-sti-	16c\	-sti-	.	.	.	.
4G\	-bus	4d\	-bus	4g\	et	4b-\	et
4r	.	2r	.	8.f\	fu-	8.a\	fu-
.	.	.	.	16e-\	-sti-	16g\	-sti-
[4d\	e-	.	.	4d\	-bus,	4a\	-bus
!	!	!LO:LB:g=original	!	!	!	!	!
=12	=12	=12	=12	=12	=12	=12	=12
4d\]	.	2.e-\	e-	2r	.	4g\	e-
4c\	-xi-	.	.	.	.	4a\	-xi-
2B-\	-e-	.	.	4.f\	e-	8b-\L	-e-
.	.	.	.	.	.	8f\J	.
.	.	4d\	-xi-	.	.	[4b-\	.
.	.	.	.	8f\	-xi-	.	.
!LO:LB:g=original	!	!	!	!LO:LB:g=original	!	!LO:LB:g=original	!
=13	=13	=13	=13	=13	=13	=13	=13
2F\	-runt	8c\L	-e-	4f\	-e-	4b-\]	.
.	.	16d\L	.	.	.	.	.
.	.	16e-\JJ	.	.	.	.	.
.	.	2f\	.	4f\	-runt	4a\	-runt
[2c\	tan-	.	.	2g\	tan-	4g\	tan-
.	.	4e-\	-runt	.	.	4a\	-quam
=14	=14	=14	=14	=14	=14	=14	=14
4c\]	.	4.d\	tan-	2f\	-quam	8.b-\L	.
.	.	.	.	.	.	16cc\Jk	.
4B-\	-quam	.	.	.	.	4dd\	.
.	.	8e-\	-quam	.	.	.	.
4A\	ad	4f\	ad	4f\	ad	4cc\	ad
4B-\	la-	4d\	la-	4f\	la-	4b-\	la-
=15	=15	=15	=15	=15	=15	=15	=15
2.F\	-tro-	4c\	-tro-	1f	-tro-	4a\	-tro-
.	.	4d\	.	.	.	4b-\	.
.	.	4c\	.	.	.	4a\	.
8E-\	.	4d\	.	.	.	4b-\	.
8D\	.	.	.	.	.	.	.
=16	=16	=16	=16	=16	=16	=16	=16
1E-	.	8G/L	.	4f\	.	8b-\L	.
.	.	8A/J	.	.	.	8a\	.
.	.	2.B-\	.	8e-\L	.	8g\	.
.	.	.	.	8d\J	.	8f\J	.
.	.	.	.	2e-\	.	2g\	.
!	!	!LO:LB:g=original	!	!	!	!LO:LB:g=original	!
=17	=17	=17	=17	=17	=17	=17	=17
1BB-	.	1B-	.	4e-\	.	4g/	.
.	.	.	.	8.d\L	.	8.f/L	.
.	.	.	.	16c\Jk	.	16e-/Jk	.
.	.	.	.	2d\	.	2f/	.
!	!	!	!	!LO:LB:g=original	!	!	!
=18	=18	=18	=18	=18	=18	=18	=18
1BB-	-nem,	1B-	-nem.	1d	-nem.	1f;	-nem.
!LO:LB:g=original	!	!	!	!	!	!	!
=19||	=19||	=19||	=19||	=19||	=19||	=19||	=19||
*M4/4	*	*M4/4	*	*M4/4	*	*	*
*met(c)	*	*met(c)	*	*met(c)	*	*	*
!LO:TX:a:t=2:mod=	!	!LO:TX:b:t=17.:mod=	!	!	!	!LO:TX:a:t=5.:mod=	!
0r	.	00r	.	4.g\	Col-	00r	.
.	.	.	.	8a\	-le-	.	.
.	.	.	.	8qg/	.	.	.
.	.	.	.	2f#X\	-ge-	.	.
=20	=20	=20	=20	=20	=20	=20	=20
.	.	.	.	4.g\	.	.	.
.	.	.	.	16fn\LL	.	.	.
.	.	.	.	16e-\JJ	.	.	.
.	.	.	.	4d\	-runt	.	.
.	.	.	.	4c\	Pon-	.	.
=21	=21	=21	=21	=21	=21	=21	=21
4.G\	col-	.	.	8.B-/	-ti-	.	.
.	.	.	.	16A/	-fi-	.	.
.	.	.	.	4G/	-ces	.	.
8A\	.	.	.	.	.	.	.
8qG/	.	.	.	.	.	.	.
2F#X\	-le-	.	.	2r	.	.	.
!	!	!	!	!LO:LB:g=original	!	!	!
=22	=22	=22	=22	=22	=22	=22	=22
!	!	!	!	!LO:TX:a:t=1:mod=	!	!	!
4.G\	-ge-	.	.	1r	.	.	.
16Fn\LL	.	.	.	.	.	.	.
16E-\JJ	.	.	.	.	.	.	.
4D\	-runt	.	.	.	.	.	.
4c\	pon-	.	.	.	.	.	.
=23	=23	=23	=23	=23	=23	=23	=23
8.B-\	-ti-	00r	.	4r	.	1r	.
16A\	-fi-	.	.	.	.	.	.
4G\	-ces,	.	.	4b-\	et	.	.
2r	.	.	.	4a\	Pha-	.	.
.	.	.	.	4g\	-ri-	.	.
!LO:TX:b:rj:t=V.S.:mod=	!	!	!	!	!	!	!
!LO:PB:g=original	!	!	!	!	!	!	!
=24	=24	=24	=24	=24	=24	=24	=24
!LO:TX:a:t=2.:mod=	!	!	!	!	!	!	!
0r	.	.	.	8.f\L	-se-	4.dd\	Col-
.	.	.	.	16en\Jk	.	.	.
.	.	.	.	4d\	-i	.	.
.	.	.	.	.	.	8een\	.
.	.	.	.	.	.	8qdd/	.
.	.	.	.	2r	.	2cc#X\	-le-
=25	=25	=25	=25	=25	=25	=25	=25
!	!	!	!	!LO:TX:a:t=2:mod=	!	!	!
.	.	.	.	0r	.	4.dd\	-ge-
.	.	.	.	.	.	16ccn\LL	.
.	.	.	.	.	.	16b-\JJ	.
.	.	.	.	.	.	4a\	-runt
.	.	.	.	.	.	4g\	Pon-
!	!	!	!	!	!	!LO:LB:g=original	!
=26	=26	=26	=26	=26	=26	=26	=26
4r	.	.	.	.	.	8.f/	-ti-
.	.	.	.	.	.	16e-/	-fi-
4A\	et	.	.	.	.	4d/	-ces
4d\	Pha-	.	.	.	.	2r	.
4c\	-ri-	.	.	.	.	.	.
!	!	!	!	!LO:PB:g=original	!	!	!
=27	=27	=27	=27	=27	=27	=27	=27
8.B-\L	-se-	00r	.	4r	.	4r	.
16A\Jk	.	.	.	.	.	.	.
4G\	-i,	.	.	4b-\	et	4dd\	et
2r	.	.	.	4a\	Pha-	4cc\	Pha-
.	.	.	.	4g\	-ri-	4b-\	-ri-
=28	=28	=28	=28	=28	=28	=28	=28
2d\	col-	.	.	4g\	-se-	4b-\	-se-
.	.	.	.	4f#X\	-i	4a\	-i,
2Bn\	-le-	.	.	2r	.	[2dd\	Col-
=29	=29	=29	=29	=29	=29	=29	=29
4.c\	-ge-	.	.	2.e-\	col-	4dd\]	.
.	.	.	.	.	.	8.cc\L	-le-
8G\	.	.	.	.	.	.	.
.	.	.	.	.	.	16bn\Jk	.
4A\	.	.	.	.	.	[2cc\	-ge-
4F#X\	.	.	.	4e-\	-le-	.	.
!LO:LB:g=original	!	!	!	!	!	!LO:LB:g=original	!
=30	=30	=30	=30	=30	=30	=30	=30
2G\	.	.	.	4.d\	-ge-	4cc\]	.
.	.	.	.	.	.	8.b-X\L	.
.	.	.	.	16en\LL	.	.	.
.	.	.	.	16f#X\JJ	.	16a\Jk	.
4G\	-runt	.	.	4g\	-runt	4b-\	-runt
4C#X/	pon-	.	.	4g\	pon-	4b-\	Pon-
!	!	!	!	!LO:LB:g=original	!	!	!
=31	=31	=31	=31	=31	=31	=31	=31
4.D\	-ti-	00r	.	4g\	-ti-	4b-\	-ti-
.	.	.	.	8.f#X\L	-fi-	8.a\L	-fi-
8D\	-fi-	.	.	.	.	.	.
.	.	.	.	16en\Jk	.	16g\Jk	.
4D\	-ces	.	.	4f#\	-ces	4a\	-ces
4D\	et	.	.	4r	.	4bn\	et
=32	=32	=32	=32	=32	=32	=32	=32
4.E-\	pha-	.	.	4r	.	2cc\	Pha-
.	.	.	.	4g\	et	.	.
8F\	.	.	.	.	.	.	.
!	!	!	!	!LO:SIC:v:s=4e\	!	!	!
2G\	-ri-	.	.	4e-\	Pha-	2cc#X\	-ri-
.	.	.	.	4a\	-ri-	.	.
=33	=33	=33	=33	=33	=33	=33	=33
4F#X\	-se-	.	.	4a\	-se-	4dd\	-se-
4D\	.	.	.	8.g\L	.	4ccn\	-i
.	.	.	.	16f#X\Jk	.	.	.
4G\	-i	.	.	4g\	-i	4b-\	con-
4E-\	con-	.	.	4g\	con-	4cc\	.
!LO:LB:g=original	!	!	!	!	!	!LO:LB:g=original	!
=34	=34	=34	=34	=34	=34	=34	=34
2.D\	-si-	.	.	2g\	-si-	2b-\	-si-
.	.	.	.	4.f#X\	.	4.a\	.
4D\	-li-	.	.	.	.	.	.
.	.	.	.	8g\	-li-	8g\	-li-
!	!	!	!	!LO:LB:g=original	!	!	!
=35	=35	=35	=35	=35	=35	=35	=35
!LO:TX:t=P:problem:podwójna kreska	!	!	!	!LO:TX:t=P:problem:podwójna kreska i met(c)	!	!	!
1GG	-um,	1r	.	1g	-um.	1g	-um,
=36||	=36||	=36	=36	=36||	=36||	=36	=36
*	*	*	*	*M4/4	*	*	*
*	*	*	*	*met(c)	*	*	*
2BB-/	ut	2d\	Ut	2fn\	Ut	2b-\	ut
2E-\	Je-	4.B-\	Je-	4.g\	Je-	2b-\	Je-
.	.	8c\	.	16f\LL	.	.	.
.	.	.	.	16e-X\JJ	.	.	.
=37	=37	=37	=37	=37	=37	=37	=37
4D\	-sum	2d\	.	4d\	.	4b-\	-sum
2G\	do-	.	.	4B-\	-sum	2b-\	do-
.	.	2e-\	-sum	[y2g\	do-	.	.
8F\L	.	.	.	.	.	4cc\	.
8E-\J	.	.	.	.	.	.	.
=38	=38	=38	=38	=38	=38	=38	=38
!	!	!	!	!LO:N:xstem:cue	!	!	!
4F\	-lo	4c\	do-	4g\]	.	4a\	.
4D\	te-	2B-\	-lo	4f\	.	4.dd\	-lo
2E-\	-ne-	.	.	4g\	-lo	.	.
.	.	.	.	.	.	8cc\	te-
.	.	8A\L	te-	4g\	te-	4cc\	-ne-
.	.	8G\J	.	.	.	.	.
!LO:LB:g=original	!	!LO:LB:g=original	!	!	!	!LO:LB:g=original	!
=39	=39	=39	=39	=39	=39	=39	=39
2D/	-rent	4A\	-ne-	4f\	-ne-	4cc\	-rent
.	.	4B-\	-rent	4f\	-rent	4b-\	.
4C/	et	4e-\	et	4f\	et	8a\	et
.	.	.	.	.	.	8f\	oc-
4BB-/	oc-	4d\	oc-	4f\	oc-	[4b-\	-ci-
!	!	!	!	!LO:LB:g=original	!	!	!
=40	=40	=40	=40	=40	=40	=40	=40
4.F\	-ci-	4.c\	-ci-	4.f\	-ci-	4b-\]	.
.	.	.	.	.	.	4a\	-de-
8F\	-de-	8c\	-de-	8f\	-de-	.	.
4BB-/	-rent,	4d\	-rent,	4f\	-rent	4b-\	-rent,
4B-\	cum	4d\	cum	4r	.	4r	.
=41	=41	=41	=41	=41	=41	=41	=41
8.A\	gla-	8.c\	gla-	4r	.	4r	.
16G\	-di-	16B-\	-di-	.	.	.	.
4F\	-is	4c\	-is	4f\	cum	8r	.
.	.	.	.	.	.	8a\	cum
4r	.	4r	.	8.e-\	gla-	8.g/	gla-
.	.	.	.	16d\	-di-	16f/	-di-
4c\	et	4e-\	et	4c\	-is	4g/	-is
!LO:LB:g=original	!	!	!	!	!	!LO:LB:g=original	!
=42	=42	=42	=42	=42	=42	=42	=42
8.B-\	fus-	8.d\	fus-	4r	.	4r	.
16A\	-ti-	16c\	-ti-	.	.	.	.
4G\	-bus	4d\	-bus	4g\	et	4b-\	et
4r	.	2r	.	8.f\	fus-	8.a\	fus-
.	.	.	.	16e-\	-ti-	16g\	-ti-
[4d\	e-	.	.	4d\	-bus	4a\	-bus
!	!	!LO:LB:g=original	!	!	!	!	!
=43	=43	=43	=43	=43	=43	=43	=43
4d\]	.	2.e-\	e-	2r	.	4g\	e-
4c\	-xi-	.	.	.	.	4a\	-xi-
2B-\	-e-	.	.	4.f\	e-	8b-\L	-e-
.	.	.	.	.	.	8f\J	.
.	.	4d\	-xi-	.	.	4b-\	.
.	.	.	.	8f\	-xi-	.	.
!	!	!	!	!LO:LB:g=original	!	!	!
=44	=44	=44	=44	=44	=44	=44	=44
2F\	-runt,	8c\L	-e-	4f\	-e-	4b-\	.
.	.	16d\L	.	.	.	.	.
.	.	16e-\JJ	.	.	.	.	.
.	.	2f\	.	4f\	-runt	4a\	-runt
[2c\	tan-	.	.	2g\	tan-	4g\	tan-
.	.	4e-\	-runt	.	.	4a\	-quam
!	!	!	!	!	!	!LO:LB:g=original	!
=45	=45	=45	=45	=45	=45	=45	=45
4c\]	.	4.d\	tan-	2f\	-quam	8.b-\L	ad
.	.	.	.	.	.	16cc\Jk	.
4B-\	-quam	.	.	.	.	4dd\	.
.	.	8e-\	-quam	.	.	.	.
4A\	ad	4f\	ad	4f\	ad	4cc\	.
4B-\	la-	4d\	la-	4f\	la-	4b-\	la-
!LO:LB:g=original	!	!	!	!	!	!	!
=46	=46	=46	=46	=46	=46	=46	=46
2.F\	-tro-	4c\	-tro-	1f	-tro-	4a\	-tro-
.	.	4d\	.	.	.	4b-\	.
.	.	4c\	.	.	.	4a\	.
8E-\L	.	4d\	.	.	.	4b-\	.
8D\J	.	.	.	.	.	.	.
=47	=47	=47	=47	=47	=47	=47	=47
1E-	.	8G/L	.	4f\	.	8b-\L	.
.	.	8A/J	.	.	.	8a\	.
.	.	2.B-\	.	8e-\L	.	8g\	.
.	.	.	.	8d\J	.	8f\J	.
.	.	.	.	2e-\	.	2g\	.
=48	=48	=48	=48	=48	=48	=48	=48
1BB-	.	1B-	.	4e-\	.	4g/	.
.	.	.	.	8.d\L	.	8.f/L	.
.	.	.	.	16c\Jk	.	16e-/Jk	.
.	.	.	.	2d\	.	2f/	.
!	!	!LO:LB:g=original	!	!	!	!	!
=49	=49	=49	=49	=49	=49	=49	=49
1BB-	-nem.	1B-	-nem.	1d	-nem.	1f	-nem.
!LO:TX:b:rj:t=Seq Lament&colon; et Responsor\nin Parasceve.	!	!LO:TX:b:rj:t=Seq Lamentatio 1ma in Parasceve.	!	!LO:TX:b:rj:t=Seq Lament&colon; et Responsor&colon;\nin Parasceve.	!	!LO:TX:b:rj:t=Seq Lament&colon; et Respon&colon;\nin Parasceve.	!
==	==	==	==	==	==	==	==
*-	*-	*-	*-	*-	*-	*-	*-
!!!system-decoration: [(s1,s2,s3,s4)]
!!!RDF**kern: > = above
!!!RDF**kern: < = below
!!!RDF**kern: i = editorial accidental
!!!ENC: Anastazja Marusiak
!!!EED: Katarzyna Serwa
!!!END: 2023-11-15
!!!EEV: 2024-06-04
!!!YEM: Copyright © 2023 by [Copyright Holder]
